X:1
T:Polska efter gubben Kll
R:Polska
O:Hamrnge, Gstrikland
N:"Obs! Inga fiss och inga ciss"
M:3/4
L:1/16
K:Dm
D2|D4G3F G3A|B3A B4G3B|A3GA4D3F|A3G G6 z2|
G4d3c d3e|f3gf4d3f|e3aa4A3c|1d4d4z2:|2d4d4z2d2|:
d3dg4e3g|f3g f3e d3c|B3A B3d c3B|B4A3FD4|d3dg4e3g|
f3g f3e d3c|B3A B3d c3B|B3AA4z4|D4G3A B3c|d3_e d3B G3B|
G3gg4B3A|1A3FG6:|2A3F [F8 B,8]||
